X: 1
T:Gan Ainm
R:Jig
S:Michael O'Raihillaigh (concertina)
D:Private tape
Z:Bernie Stocks
M:6/8
L:1/8
K:D
AFA d2A|dfa gfe|1 fdd e2d|=cAG FGA:|2 ged =cAG|Adc d3:|!
|:ABA GFG|ADD FED|EDE =cBc|GEG =cAG|!
AGA GFG|Add efg|(3gfe d =cAG|Adc de=f:|!
|:fdd efg|add =cde|fdd efg|agf d2e|!
(3fga f gfg|add =cde|(3gfe d =cAG|Adc d3:|!
